X: 10
T: Cameronian, The
Z: Paahto
S: https://thesession.org/tunes/284#setting51061
R: reel
M: 4/4
L: 1/8
K: Dmaj
|:A2 FA DAFA|GFEF GEBG|A2 FA DAFA|GEAF E2 D2|
A2 FA DAFA|GFEF GEBG|A2 FA DAFA|GEAF E2 D2:|
|:Addd fddd|(3Bcd ef gf e2|=c2 ec gcec|(3Bcd ef g3 z|
fded fded|(3Bcd ef g2 fg|afeg fdec|dBAG FD D2:|

